X: 22781
T: Langton's Of Kilkenny
R: hornpipe
M: 4/4
K: Dmajor
(3GFE|DFAd f2 ed|cAAG EAGE|DFAd f2 ed|(3Bcd ef g2 fe|
dFAd f2 ed|cAAG EAGE|(3FGF DA (3GAG EB|AFGE D3:|
ABdf a2 gf|gece AGFE|(3FGF DA (3GAG EB|Adfd eAce|
defg a2 gf|gece AGFE|(3FGF DA (3GAG EB|AFGE D3:|

